flaticon/social-media/flickr.svg

<svg xmlns="http://www.w3.org/2000/svg" width="32" height="32" viewBox="0 0 24 24">
    <path d="M5.601562 6.398438C2.519531 6.398438 0 8.921875 0 12 0 15.078125 2.519531 17.601562 5.601562 17.601562 8.679688 17.601562 11.199219 15.078125 11.199219 12 11.199219 8.921875 8.679688 6.398438 5.601562 6.398438zM5.601562 16.800781C2.960938 16.800781.800781 14.640625.800781 12 .800781 9.359375 2.960938 7.199219 5.601562 7.199219 8.238281 7.199219 10.398438 9.359375 10.398438 12 10.398438 14.640625 8.238281 16.800781 5.601562 16.800781zM18.398438 6.398438C15.320312 6.398438 12.800781 8.921875 12.800781 12 12.800781 15.078125 15.320312 17.601562 18.398438 17.601562 21.480469 17.601562 24 15.078125 24 12 24 8.921875 21.480469 6.398438 18.398438 6.398438zM18.398438 16.800781C15.761719 16.800781 13.601562 14.640625 13.601562 12 13.601562 9.359375 15.761719 7.199219 18.398438 7.199219 21.039062 7.199219 23.199219 9.359375 23.199219 12 23.199219 14.640625 21.039062 16.800781 18.398438 16.800781zM18.398438 16.800781"/>
</svg>

<svg xmlns="http://www.w3.org/2000/svg" width="32" height="32" viewBox="0 0 24 24">
    <path d="M5.602 6.398C2.52 6.398 0 8.922 0 12c0 3.078 2.52 5.602 5.602 5.602 3.078 0 5.597-2.524 5.597-5.602 0-3.078-2.52-5.602-5.597-5.602zm0 10.403C2.96 16.8.8 14.64.8 12c0-2.64 2.16-4.8 4.8-4.8 2.637 0 4.797 2.16 4.797 4.8 0 2.64-2.16 4.8-4.796 4.8zm0 0M18.398 6.398c-3.078 0-5.597 2.524-5.597 5.602 0 3.078 2.52 5.602 5.597 5.602C21.48 17.602 24 15.078 24 12c0-3.078-2.52-5.602-5.602-5.602zm0 10.403c-2.636 0-4.796-2.16-4.796-4.801 0-2.64 2.16-4.8 4.796-4.8C21.04 7.2 23.2 9.36 23.2 12c0 2.64-2.16 4.8-4.8 4.8zm0 0"/>
</svg>
